X:5
T:Behind the Bush in the Garden
C: Ireland
R: jig
M: 6/8
K: Am
|:A2B| "Am"c2A AGE|c2A AGE|"G"GAGG2E|G3GEG |
"Am"c2de2a|"Em"g2ed2e| "Am"c2A "G"BAG| "Am"A3:|
|:A2B|"C"c2Bc2d|"Am"eage2d|"C"c2Bc2d|"Em"e2GG2B |
|1"C"c2Bc2d|"Am"eag"G"e2d |"F"c2A "G"BAG|"Am"A3"G7":|
|2"Am"c2de2a|"Em"g2ed2e| "Am"c2A "G"BAG| "Am"A3|]
